flaticon/monuments/venice.svg

<svg xmlns="http://www.w3.org/2000/svg" width="32" height="32" viewBox="0 0 24 24">
    <path d="M 12 0 C 9.050781 0 6.34375 1.078125 4.25 2.859375 L 4.238281 2.839844 L 3.878906 3.160156 C 3.097656 3.902344 2.421875 4.71875 1.847656 5.601562 L 1.839844 5.601562 L 1.71875 5.800781 L 1.359375 6.398438 L 1.378906 6.398438 C 0.660156 7.757812 0.214844 9.230469 0.0390625 10.761719 L 0 11.199219 L 0.0273438 11.199219 C 0.0117188 11.414062 0.00390625 11.625 0.00390625 11.839844 C 0 11.894531 0 11.949219 0 12 C 0 12.09375 0 12.1875 0.00390625 12.277344 C 0.00390625 12.292969 0.00390625 12.3125 0.00390625 12.328125 C 0.00390625 12.328125 0.00390625 12.332031 0.00390625 12.332031 C 0 12.355469 0 12.378906 0 12.398438 C 0 12.433594 0.00390625 12.46875 0.0117188 12.5 C 0.0117188 12.53125 0.0117188 12.558594 0.015625 12.585938 C 0.015625 12.609375 0.015625 12.628906 0.0195312 12.648438 C 0.0234375 12.734375 0.0273438 12.820312 0.0351562 12.90625 C 0.0351562 12.921875 0.0351562 12.9375 0.0390625 12.953125 C 0.0429688 13.03125 0.0507812 13.109375 0.0585938 13.191406 C 0.0625 13.207031 0.0625 13.222656 0.0625 13.234375 C 0.0742188 13.324219 0.0820312 13.410156 0.09375 13.496094 C 0.0976562 13.511719 0.0976562 13.53125 0.101562 13.546875 C 0.113281 13.636719 0.125 13.726562 0.136719 13.816406 C 0.140625 13.820312 0.140625 13.824219 0.140625 13.828125 C 0.148438 13.875 0.152344 13.917969 0.160156 13.964844 C 0.160156 13.976562 0.160156 13.988281 0.160156 14 C 0.160156 14.074219 0.175781 14.136719 0.203125 14.195312 C 0.292969 14.679688 0.414062 15.160156 0.5625 15.628906 C 0.566406 15.710938 0.589844 15.785156 0.628906 15.84375 C 1.007812 16.957031 1.546875 18.011719 2.230469 18.964844 C 2.253906 19.027344 2.289062 19.078125 2.339844 19.117188 C 2.800781 19.738281 3.324219 20.316406 3.90625 20.839844 C 4.191406 21.101562 4.488281 21.347656 4.800781 21.582031 L 4.800781 21.601562 L 4.960938 21.71875 C 5.132812 21.84375 5.308594 21.960938 5.488281 22.078125 L 5.601562 22.160156 L 5.601562 22.148438 C 6.117188 22.46875 6.652344 22.753906 7.199219 22.996094 L 7.199219 23 L 7.480469 23.121094 C 7.667969 23.195312 7.859375 23.265625 8.050781 23.332031 C 8.089844 23.34375 8.128906 23.355469 8.167969 23.371094 C 8.171875 23.371094 8.179688 23.375 8.183594 23.375 C 8.472656 23.472656 8.765625 23.558594 9.0625 23.636719 C 9.070312 23.636719 9.074219 23.636719 9.082031 23.640625 C 9.550781 23.757812 10.03125 23.847656 10.515625 23.910156 L 10.800781 23.960938 L 10.800781 23.941406 C 10.984375 23.960938 11.171875 23.972656 11.359375 23.984375 C 11.378906 23.984375 11.398438 23.984375 11.417969 23.984375 C 11.496094 23.988281 11.570312 23.992188 11.644531 23.996094 C 11.667969 23.996094 11.691406 23.996094 11.71875 23.996094 C 11.8125 24 11.90625 24 12 24 C 12.089844 24 12.179688 24 12.269531 23.996094 C 12.292969 23.996094 12.320312 23.996094 12.347656 23.996094 C 12.425781 23.992188 12.503906 23.988281 12.582031 23.984375 C 12.621094 23.984375 12.664062 23.980469 12.703125 23.980469 C 12.746094 23.976562 12.789062 23.972656 12.832031 23.96875 C 14.234375 23.875 15.570312 23.53125 16.800781 22.992188 L 16.800781 23 L 17.398438 22.71875 C 18.378906 22.230469 19.289062 21.597656 20.125 20.824219 C 20.992188 20.035156 21.746094 19.109375 22.359375 18.078125 L 22.398438 18 L 22.398438 17.96875 C 23.417969 16.207031 24 14.167969 24 12 C 24 5.398438 18.601562 0 12 0 Z M 4.046875 4.132812 L 4.921875 5.601562 L 2.824219 5.601562 C 3.191406 5.078125 3.601562 4.585938 4.046875 4.132812 Z M 2.398438 7.601562 C 2.839844 7.601562 3.199219 7.960938 3.199219 8.398438 C 3.199219 8.839844 2.839844 9.199219 2.398438 9.199219 C 1.960938 9.199219 1.601562 8.839844 1.601562 8.398438 C 1.601562 7.960938 1.960938 7.601562 2.398438 7.601562 Z M 4.800781 20.558594 C 4.410156 20.230469 4.042969 19.875 3.703125 19.5 C 3.691406 19.488281 3.679688 19.476562 3.667969 19.460938 C 3.617188 19.40625 3.566406 19.347656 3.515625 19.289062 C 3.492188 19.261719 3.464844 19.234375 3.441406 19.203125 C 3.441406 19.203125 3.441406 19.203125 3.4375 19.199219 L 4.800781 19.199219 Z M 4.800781 18.398438 L 2.824219 18.398438 C 2.820312 18.394531 2.816406 18.390625 2.8125 18.382812 C 2.785156 18.347656 2.761719 18.3125 2.738281 18.273438 C 2.703125 18.226562 2.671875 18.175781 2.636719 18.125 C 2.617188 18.097656 2.597656 18.066406 2.578125 18.039062 C 2.488281 17.894531 2.398438 17.75 2.3125 17.601562 L 4.800781 17.601562 Z M 4.800781 16.800781 L 1.890625 16.800781 C 1.878906 16.777344 1.867188 16.757812 1.859375 16.738281 C 1.855469 16.730469 1.855469 16.726562 1.851562 16.722656 C 1.742188 16.484375 1.640625 16.246094 1.542969 16 L 4.800781 16 Z M 4.800781 15.199219 L 1.269531 15.199219 C 1.191406 14.9375 1.121094 14.667969 1.0625 14.398438 L 4.800781 14.398438 Z M 4.800781 13.601562 L 0.917969 13.601562 C 0.914062 13.585938 0.910156 13.570312 0.910156 13.554688 C 0.90625 13.546875 0.90625 13.535156 0.90625 13.523438 C 0.894531 13.4375 0.882812 13.351562 0.871094 13.265625 C 0.871094 13.25 0.867188 13.234375 0.867188 13.214844 C 0.859375 13.136719 0.851562 13.054688 0.84375 12.972656 C 0.839844 12.953125 0.839844 12.929688 0.835938 12.910156 C 0.835938 12.875 0.832031 12.835938 0.828125 12.800781 L 4.800781 12.800781 Z M 4.800781 12 L 0.800781 12 C 0.800781 11.8125 0.804688 11.628906 0.8125 11.445312 C 0.820312 11.363281 0.828125 11.285156 0.839844 11.199219 L 4.800781 11.199219 Z M 5.398438 10.398438 L 0.921875 10.398438 C 0.964844 10.078125 1.023438 9.757812 1.097656 9.441406 C 1.105469 9.414062 1.113281 9.382812 1.117188 9.355469 C 1.410156 9.746094 1.878906 10 2.398438 10 C 3.28125 10 4 9.28125 4 8.398438 C 4 7.519531 3.28125 6.800781 2.398438 6.800781 C 2.289062 6.800781 2.175781 6.8125 2.070312 6.835938 C 2.148438 6.6875 2.226562 6.542969 2.3125 6.398438 L 5.398438 6.398438 C 5.519531 6.398438 5.601562 6.480469 5.601562 6.601562 L 5.601562 10.199219 C 5.601562 10.320312 5.519531 10.398438 5.398438 10.398438 Z M 8 22.457031 L 8 20.800781 C 8 20.238281 8.441406 19.800781 9 19.800781 C 9.558594 19.800781 10 20.238281 10 20.800781 L 10 23.019531 C 9.308594 22.894531 8.640625 22.703125 8 22.457031 Z M 12.800781 23.160156 L 12.800781 20.800781 C 12.800781 20.238281 13.238281 19.800781 13.800781 19.800781 C 14.359375 19.800781 14.800781 20.238281 14.800781 20.800781 L 14.800781 22.839844 C 14.160156 23 13.480469 23.121094 12.800781 23.160156 Z M 17.601562 21.679688 L 17.601562 20.398438 C 17.601562 19.839844 18.039062 19.398438 18.601562 19.398438 C 19.078125 19.398438 19.519531 19.761719 19.601562 20.199219 C 18.960938 20.761719 18.320312 21.28125 17.601562 21.679688 Z M 21.601562 17.75 C 21.472656 17.960938 21.339844 18.164062 21.199219 18.367188 L 21.199219 15.601562 L 6 15.601562 L 6 18.398438 L 21.175781 18.398438 C 20.882812 18.820312 20.5625 19.21875 20.214844 19.59375 C 19.886719 19.019531 19.300781 18.601562 18.601562 18.601562 C 17.601562 18.601562 16.800781 19.398438 16.800781 20.398438 L 16.800781 22.113281 C 16.652344 22.183594 16.503906 22.25 16.351562 22.316406 C 16.347656 22.316406 16.34375 22.320312 16.339844 22.320312 C 16.277344 22.347656 16.214844 22.371094 16.152344 22.398438 C 15.96875 22.46875 15.785156 22.539062 15.601562 22.601562 L 15.601562 20.800781 C 15.601562 19.800781 14.800781 19 13.800781 19 C 12.800781 19 12 19.800781 12 20.800781 L 12 23.199219 C 11.910156 23.199219 11.820312 23.199219 11.730469 23.195312 C 11.714844 23.195312 11.703125 23.195312 11.6875 23.195312 C 11.386719 23.1875 11.09375 23.167969 10.800781 23.136719 L 10.800781 20.800781 C 10.800781 19.800781 10 19 9 19 C 8 19 7.199219 19.800781 7.199219 20.800781 L 7.199219 22.113281 C 6.640625 21.84375 6.105469 21.53125 5.601562 21.175781 L 5.601562 15.199219 L 21.601562 15.199219 Z M 20.398438 16.398438 L 20.398438 17.601562 L 6.800781 17.601562 L 6.800781 16.398438 Z M 13.519531 10.398438 L 18.878906 10.398438 C 19.398438 10.398438 19.878906 10.71875 20.078125 11.199219 L 21.398438 14.398438 L 18.398438 14.398438 L 18.398438 12.800781 C 18.398438 11.800781 17.601562 11 16.601562 11 C 15.601562 11 14.800781 11.800781 14.800781 12.800781 L 14.800781 14.398438 L 12.800781 14.398438 L 12.800781 12.800781 C 12.800781 11.800781 12 11 11 11 C 10 11 9.199219 11.800781 9.199219 12.800781 L 9.199219 14.398438 L 5.800781 14.398438 L 7.121094 11.199219 C 7.320312 10.71875 7.800781 10.398438 8.320312 10.398438 Z M 9.519531 9.601562 L 10.238281 8.398438 L 11.398438 8.398438 L 12.121094 9.601562 Z M 15.121094 9.601562 L 15.839844 8.398438 L 17 8.398438 L 17.71875 9.601562 Z M 17.601562 14.398438 L 15.601562 14.398438 L 15.601562 12.800781 C 15.601562 12.238281 16.039062 11.800781 16.601562 11.800781 C 17.160156 11.800781 17.601562 12.238281 17.601562 12.800781 Z M 12 12.800781 L 12 14.398438 L 10 14.398438 L 10 12.800781 C 10 12.238281 10.441406 11.800781 11 11.800781 C 11.558594 11.800781 12 12.238281 12 12.800781 Z M 22.265625 14.398438 L 20.800781 10.878906 C 20.480469 10.121094 19.71875 9.601562 18.878906 9.601562 L 18.628906 9.601562 L 17.398438 7.601562 L 15.359375 7.601562 L 14.160156 9.601562 L 13.027344 9.601562 L 11.800781 7.601562 L 9.761719 7.601562 L 8.558594 9.601562 L 8.320312 9.601562 C 7.480469 9.601562 6.71875 10.121094 6.398438 10.878906 L 5.601562 12.800781 L 5.601562 11.179688 C 6.0625 11.089844 6.398438 10.691406 6.398438 10.199219 L 6.398438 6.601562 C 6.398438 6.222656 6.199219 5.898438 5.894531 5.726562 L 4.65625 3.5625 C 6.625 1.84375 9.195312 0.800781 12 0.800781 C 18.160156 0.800781 23.199219 5.839844 23.199219 12 C 23.199219 13.460938 22.914062 14.859375 22.398438 16.144531 L 22.398438 14.398438 Z M 22.265625 14.398438"/>
    <path d="M13.601562 14L14 14C14.238281 14 14.398438 13.839844 14.398438 13.601562 14.398438 13.359375 14.238281 13.199219 14 13.199219L13.601562 13.199219C13.359375 13.199219 13.199219 13.359375 13.199219 13.601562 13.199219 13.839844 13.359375 14 13.601562 14zM13.601562 12.800781L14 12.800781C14.238281 12.800781 14.398438 12.640625 14.398438 12.398438 14.398438 12.160156 14.238281 12 14 12L13.601562 12C13.359375 12 13.199219 12.160156 13.199219 12.398438 13.199219 12.640625 13.359375 12.800781 13.601562 12.800781zM8.398438 13.199219L8 13.199219C7.761719 13.199219 7.601562 13.359375 7.601562 13.601562 7.601562 13.839844 7.761719 14 8 14L8.398438 14C8.640625 14 8.800781 13.839844 8.800781 13.601562 8.800781 13.359375 8.640625 13.199219 8.398438 13.199219zM7.601562 12.398438C7.601562 12.640625 7.761719 12.800781 8 12.800781L8.398438 12.800781C8.640625 12.800781 8.800781 12.640625 8.800781 12.398438 8.800781 12.160156 8.640625 12 8.398438 12L8 12C7.761719 12 7.601562 12.160156 7.601562 12.398438zM19.199219 14L19.601562 14C19.839844 14 20 13.839844 20 13.601562 20 13.359375 19.839844 13.199219 19.601562 13.199219L19.199219 13.199219C18.960938 13.199219 18.800781 13.359375 18.800781 13.601562 18.800781 13.839844 18.960938 14 19.199219 14zM19.199219 12.800781L19.601562 12.800781C19.839844 12.800781 20 12.640625 20 12.398438 20 12.160156 19.839844 12 19.601562 12L19.199219 12C18.960938 12 18.800781 12.160156 18.800781 12.398438 18.800781 12.640625 18.960938 12.800781 19.199219 12.800781zM19.199219 12.800781"/>
</svg>

<svg xmlns="http://www.w3.org/2000/svg" width="32" height="32" viewBox="0 0 24 24">
    <path d="M12 0C9.05 0 6.344 1.078 4.25 2.86l-.012-.02-.36.32a13.544 13.544 0 0 0-2.03 2.442H1.84l-.121.199-.36.597h.02a12.3 12.3 0 0 0-1.34 4.364L0 11.199h.027a8.776 8.776 0 0 0-.023.64C0 11.896 0 11.95 0 12c0 .094 0 .188.004.277V12.332C0 12.355 0 12.379 0 12.398c0 .036.004.07.012.102 0 .031 0 .059.004.086a5.704 5.704 0 0 0 .023.367c.004.078.012.156.02.238.004.016.004.032.004.043.011.09.019.176.03.262.005.016.005.035.009.05l.035.27c.004.004.004.008.004.012.007.047.011.09.02.137V14c0 .074.015.137.042.195.09.485.211.965.36 1.434a.423.423 0 0 0 .066.215 11.982 11.982 0 0 0 1.601 3.12.333.333 0 0 0 .11.153c.46.621.984 1.2 1.566 1.723.285.262.582.508.895.742v.02l.16.117c.172.125.348.242.527.36l.114.081v-.012c.515.32 1.05.606 1.597.848V23l.281.121a14.198 14.198 0 0 0 .688.25l.016.004a13.385 13.385 0 0 0 .898.266c.469.117.95.207 1.434.27l.285.05v-.02c.183.02.37.032.558.043h.059l.227.012h.074c.094.004.187.004.281.004.09 0 .18 0 .27-.004h.078l.234-.012c.04 0 .082-.004.121-.004l.129-.011a11.848 11.848 0 0 0 3.969-.977V23l.597-.281c.98-.489 1.891-1.121 2.727-1.895a12.009 12.009 0 0 0 2.234-2.746L22.4 18v-.031A11.881 11.881 0 0 0 24 12c0-6.602-5.398-12-12-12zM4.047 4.133l.875 1.469H2.824a11.61 11.61 0 0 1 1.223-1.47zM2.398 7.602c.442 0 .801.359.801.796 0 .442-.36.801-.8.801a.801.801 0 0 1-.797-.8.8.8 0 0 1 .796-.797zm2.403 12.957a11.248 11.248 0 0 1-1.285-1.27c-.024-.027-.051-.055-.075-.086l-.003-.004H4.8zm0-2.16H2.824a1.074 1.074 0 0 1-.086-.125c-.035-.047-.066-.098-.101-.149-.02-.027-.04-.059-.059-.086-.09-.144-.18-.289-.265-.437H4.8zm0-1.598H1.89c-.012-.024-.024-.043-.032-.063-.004-.008-.004-.011-.007-.015-.11-.239-.211-.477-.309-.723h3.258zm0-1.602H1.27a10.933 10.933 0 0 1-.208-.8h3.739zm0-1.597H.918a.196.196 0 0 1-.008-.047c-.004-.008-.004-.02-.004-.032l-.035-.257c0-.016-.004-.032-.004-.051l-.023-.242c-.004-.02-.004-.043-.008-.063a1.03 1.03 0 0 0-.008-.11h3.973zM4.8 12h-4c0-.188.004-.371.011-.555A5.92 5.92 0 0 1 .84 11.2H4.8zm.597-1.602H.922a10.044 10.044 0 0 1 .195-1.043c.293.391.762.645 1.281.645C3.281 10 4 9.281 4 8.398a1.603 1.603 0 0 0-1.93-1.562c.078-.149.157-.293.243-.438h3.085c.122 0 .204.082.204.204v3.597c0 .121-.082.2-.204.2zM8 22.457v-1.656c0-.563.441-1 1-1a.99.99 0 0 1 1 1v2.219a11.065 11.065 0 0 1-2-.563zm4.8.703V20.8c0-.562.438-1 1-1a.99.99 0 0 1 1 1v2.04c-.64.16-1.32.281-2 .32zm4.802-1.48v-1.282c0-.558.437-1 1-1 .476 0 .918.364 1 .801-.641.563-1.282 1.082-2 1.48zm4-3.93c-.13.21-.262.414-.403.617v-2.765H6v2.796h15.176c-.293.422-.613.82-.961 1.196-.328-.574-.914-.992-1.613-.992-1 0-1.801.796-1.801 1.796v1.715c-.149.07-.297.137-.45.203-.003 0-.007.004-.011.004-.063.028-.125.051-.188.078-.183.07-.367.141-.55.204V20.8c0-1-.801-1.801-1.801-1.801-1 0-1.801.8-1.801 1.8v2.4c-.09 0-.18 0-.27-.005h-.043c-.3-.008-.593-.027-.886-.058V20.8C10.8 19.8 10 19 9 19c-1 0-1.8.8-1.8 1.8v1.313a11.255 11.255 0 0 1-1.598-.937v-5.977h16zm-1.204-1.352v1.204H6.801v-1.204zm-6.878-6h5.359c.52 0 1 .32 1.2.801l1.32 3.2h-3V12.8c0-1-.797-1.801-1.797-1.801-1 0-1.801.8-1.801 1.8v1.598h-2v-1.597C12.8 11.8 12 11 11 11c-1 0-1.8.8-1.8 1.8v1.598H5.8L7.122 11.2c.2-.48.68-.8 1.2-.8zm-4-.796l.718-1.204h1.16l.723 1.204zm5.601 0l.719-1.204H17l.719 1.204zm2.48 4.796h-2v-1.597c0-.563.438-1 1-1a.99.99 0 0 1 1 1zM12 12.801v1.597h-2v-1.597c0-.563.441-1 1-1a.99.99 0 0 1 1 1zm10.266 1.597l-1.465-3.52a2.104 2.104 0 0 0-1.922-1.276h-.25l-1.23-2h-2.04l-1.199 2h-1.133l-1.226-2H9.76l-1.202 2H8.32c-.84 0-1.601.52-1.922 1.277L5.602 12.8V11.18a.985.985 0 0 0 .796-.98V6.601c0-.38-.199-.704-.503-.875L4.656 3.562A11.136 11.136 0 0 1 12 .801C18.16.8 23.2 5.84 23.2 12c0 1.46-.286 2.86-.802 4.145v-1.747zm0 0"/>
    <path d="M13.602 14H14c.238 0 .398-.16.398-.398 0-.243-.16-.403-.398-.403h-.398c-.243 0-.403.16-.403.403 0 .238.16.398.403.398zm0 0M13.602 12.8H14c.238 0 .398-.16.398-.402 0-.238-.16-.398-.398-.398h-.398c-.243 0-.403.16-.403.398 0 .243.16.403.403.403zm0 0M8.398 13.2H8c-.238 0-.398.16-.398.402 0 .238.16.398.398.398h.398c.243 0 .403-.16.403-.398 0-.243-.16-.403-.403-.403zm0 0M7.602 12.398c0 .243.16.403.398.403h.398c.243 0 .403-.16.403-.403 0-.238-.16-.398-.403-.398H8c-.238 0-.398.16-.398.398zm0 0M19.2 14h.402c.238 0 .398-.16.398-.398 0-.243-.16-.403-.398-.403h-.403c-.238 0-.398.16-.398.403 0 .238.16.398.398.398zm0 0M19.2 12.8h.402c.238 0 .398-.16.398-.402 0-.238-.16-.398-.398-.398h-.403c-.238 0-.398.16-.398.398 0 .243.16.403.398.403zm0 0"/>
</svg>
